icons/media/clapperboard-1-24.svg

<svg width="24" height="24" viewBox="0 0 24 24" fill="none" xmlns="http://www.w3.org/2000/svg">
<path fill-rule="evenodd" clip-rule="evenodd" d="M4.91957 1H19.0804C19.6146 0.99999 20.0604 0.999981 20.4247 1.02974C20.8046 1.06078 21.1612 1.12789 21.4985 1.29973C22.0159 1.56338 22.4366 1.98408 22.7003 2.50153C22.8721 2.83879 22.9392 3.19545 22.9703 3.57533C23 3.93956 23 4.3854 23 4.91955V19.0805C23 19.6146 23 20.0604 22.9703 20.4247C22.9392 20.8046 22.8721 21.1612 22.7003 21.4985C22.4366 22.0159 22.0159 22.4366 21.4985 22.7003C21.1612 22.8721 20.8046 22.9392 20.4247 22.9703C20.0604 23 19.6146 23 19.0805 23H4.91955C4.3854 23 3.93956 23 3.57533 22.9703C3.19545 22.9392 2.83879 22.8721 2.50153 22.7003C1.98408 22.4366 1.56338 22.0159 1.29973 21.4985C1.12789 21.1612 1.06078 20.8046 1.02974 20.4247C0.999981 20.0604 0.99999 19.6146 1 19.0804V4.91957C0.99999 4.38541 0.999981 3.93956 1.02974 3.57533C1.06078 3.19545 1.12789 2.83879 1.29973 2.50153C1.56338 1.98408 1.98408 1.56338 2.50153 1.29973C2.83879 1.12789 3.19545 1.06078 3.57533 1.02974C3.93956 0.999981 4.38541 0.99999 4.91957 1ZM7.5 21.5H11.25V18H7.5V21.5ZM6 18V21.5H4.95C4.37757 21.5 3.99336 21.4994 3.69748 21.4752C3.41036 21.4518 3.27307 21.4099 3.18251 21.3638C2.94731 21.2439 2.75608 21.0527 2.63624 20.8175C2.5901 20.7269 2.54822 20.5896 2.52476 20.3025C2.50058 20.0066 2.5 19.6224 2.5 19.05V18H6ZM21.5 16.5V7.5H2.5V16.5H21.5ZM2.5 6H6V2.5H4.95C4.37757 2.5 3.99336 2.50058 3.69748 2.52476C3.41036 2.54822 3.27307 2.5901 3.18251 2.63624C2.94731 2.75608 2.75608 2.94731 2.63624 3.18251C2.5901 3.27307 2.54822 3.41035 2.52476 3.69748C2.50058 3.99336 2.5 4.37757 2.5 4.95V6ZM7.5 2.5V6H11.25V2.5L7.5 2.5ZM12.75 2.5V6H16.5V2.5L12.75 2.5ZM18 2.5V6H21.5V4.95C21.5 4.37757 21.4994 3.99336 21.4752 3.69748C21.4518 3.41036 21.4099 3.27307 21.3638 3.18251C21.2439 2.94731 21.0527 2.75608 20.8175 2.63624C20.7269 2.5901 20.5896 2.54822 20.3025 2.52476C20.0066 2.50058 19.6224 2.5 19.05 2.5H18ZM21.5 18H18V21.5H19.05C19.6224 21.5 20.0066 21.4994 20.3025 21.4752C20.5896 21.4518 20.7269 21.4099 20.8175 21.3638C21.0527 21.2439 21.2439 21.0527 21.3638 20.8175C21.4099 20.7269 21.4518 20.5896 21.4752 20.3025C21.4994 20.0066 21.5 19.6224 21.5 19.05V18ZM16.5 21.5V18H12.75V21.5H16.5Z" fill="black"/>
</svg>

<svg xmlns="http://www.w3.org/2000/svg" width="24" height="24"><path fill-rule="evenodd" d="M4.92 1h14.16c.535 0 .98 0 1.345.03.38.03.736.098 1.073.27A2.75 2.75 0 0122.7 2.502c.172.337.24.693.27 1.073.03.365.03.81.03 1.345v14.16c0 .535 0 .98-.03 1.345-.03.38-.098.736-.27 1.073a2.751 2.751 0 01-1.2 1.202c-.338.172-.694.24-1.074.27-.365.03-.81.03-1.345.03H4.92c-.535 0-.98 0-1.345-.03-.38-.03-.736-.098-1.073-.27A2.75 2.75 0 011.3 21.5c-.172-.338-.24-.694-.27-1.074C1 20.06 1 19.615 1 19.08V4.92c0-.535 0-.98.03-1.345.03-.38.098-.736.27-1.073A2.75 2.75 0 012.502 1.3c.337-.172.693-.24 1.073-.27C3.94 1 4.385 1 4.92 1zM7.5 21.5h3.75V18H7.5v3.5zM6 18v3.5H4.95c-.572 0-.957 0-1.253-.025-.287-.023-.424-.065-.514-.111a1.25 1.25 0 01-.547-.547c-.046-.09-.088-.227-.111-.515-.024-.295-.025-.68-.025-1.252V18H6zm15.5-1.5v-9h-19v9h19zM2.5 6H6V2.5H4.95c-.572 0-.957 0-1.253.025-.287.023-.424.065-.514.111a1.25 1.25 0 00-.547.547c-.046.09-.088.227-.111.514-.024.296-.025.68-.025 1.253V6zm5-3.5V6h3.75V2.5H7.5zm5.25 0V6h3.75V2.5h-3.75zm5.25 0V6h3.5V4.95c0-.572 0-.957-.025-1.253-.023-.287-.065-.424-.111-.514a1.25 1.25 0 00-.547-.547c-.09-.046-.227-.088-.515-.111-.295-.024-.68-.025-1.252-.025H18zM21.5 18H18v3.5h1.05c.572 0 .957 0 1.252-.025.288-.023.425-.065.515-.111a1.25 1.25 0 00.547-.547c.046-.09.088-.227.111-.515.024-.295.025-.68.025-1.252V18zm-5 3.5V18h-3.75v3.5h3.75z"/></svg>
